X: 266
T: Dowd's No. 9
R: reel
M: 4/4
L: 1/8
K: Dmaj
DFAF GFEF|D2 FA dABA|~F2 AF GFGB|AGFD EDB,C|
DF ~F2 GFEF|DEFA dABA|F2 AF GFGB|AGFD ED D2 :|
fd ~d2 g2 ag|f2 df edBA|fefa gfec|dcde fddA|
dfaf gfeg|fedf ecAF|GABG FAdB|AGFD ED D2 :|

